X: 71
T: Moon and Seven Stars, The
Z: Transcribed to abc by Mary Lou Knack
R: jig
M: 6/8
K: D
A \
| "D"d2A AGF | "G"GAB "D"A2A | "G"Bcd efg | "A"fed cBA | "D"d2A AGF |
| "G"GAB "D"A2A | "G"Bcd efg | "A"Adc "D"d2 :: c/d/ | "A"e2A ABA | efg "D"f3 |
| "A"efg "D"fed | "E"cdB "A"A2A | "G"BGB "D"A2A | "G"BGB "D"A2A | "G"Bcd efg | "A"Adc "D"d2 :|

%%sep 1 1 500

